packages/react-icons/icons/wifi.svg

<svg width="24" height="25" viewBox="0 0 24 25" xmlns="http://www.w3.org/2000/svg"><path fill-rule="evenodd" clip-rule="evenodd" d="M19.4778 10.9204C19.8322 11.2687 20.3977 11.2595 20.7409 10.8998C21.0842 10.5401 21.0751 9.96609 20.7207 9.61774C15.8509 4.83116 8.08021 4.87905 3.26896 9.76232C2.92011 10.1164 2.92011 10.6905 3.26896 11.0445C3.61781 11.3986 4.18341 11.3986 4.53226 11.0445C8.65255 6.86257 15.3076 6.82142 19.4778 10.9204ZM16.9417 13.5044C17.2961 13.8527 17.8616 13.8435 18.2048 13.4838C18.548 13.1241 18.5389 12.5501 18.1845 12.2018C14.73 8.80625 9.21778 8.8402 5.80482 12.3043C5.45597 12.6583 5.45597 13.2324 5.80482 13.5865C6.15367 13.9405 6.71927 13.9405 7.06812 13.5865C9.79012 10.8237 14.1867 10.7965 16.9417 13.5044ZM15.7785 15.9687C15.4353 16.3284 14.8698 16.3376 14.5154 15.9893C13.1147 14.6125 10.8791 14.6263 9.49505 16.0311C9.1462 16.3852 8.5806 16.3852 8.23175 16.0311C7.88289 15.677 7.88289 15.103 8.23175 14.7489C10.3067 12.6428 13.658 12.6222 15.7583 14.6866C16.1127 15.035 16.1217 15.609 15.7785 15.9687ZM11.9994 18.9365C12.6956 18.9365 13.2599 18.3637 13.2599 17.6571C13.2599 16.9505 12.6956 16.3777 11.9994 16.3777C11.3032 16.3777 10.7389 16.9505 10.7389 17.6571C10.7389 18.3637 11.3032 18.9365 11.9994 18.9365Z"/></svg>

<svg xmlns="http://www.w3.org/2000/svg" width="24" height="25"><path fill-rule="evenodd" d="M19.478 10.92c.354.349.92.34 1.263-.02a.916.916 0 0 0-.02-1.282 12.312 12.312 0 0 0-17.452.144.916.916 0 0 0 0 1.282.884.884 0 0 0 1.263 0 10.544 10.544 0 0 1 14.946-.124Zm-2.536 2.584c.354.349.92.34 1.263-.02a.916.916 0 0 0-.02-1.282 8.734 8.734 0 0 0-12.38.102.916.916 0 0 0 0 1.282.884.884 0 0 0 1.263 0 6.966 6.966 0 0 1 9.874-.082Zm-1.164 2.465a.884.884 0 0 1-1.263.02 3.542 3.542 0 0 0-5.02.042.884.884 0 0 1-1.263 0 .916.916 0 0 1 0-1.282 5.31 5.31 0 0 1 7.526-.062.916.916 0 0 1 .02 1.282ZM12 18.936a1.27 1.27 0 0 0 1.26-1.279 1.27 1.27 0 0 0-1.26-1.28 1.27 1.27 0 0 0-1.26 1.28c0 .707.564 1.28 1.26 1.28Z" clip-rule="evenodd"/></svg>
